static/social/pinterest.svg

<?xml version="1.0" encoding="UTF-8"?>
<svg width="28px" height="28px" viewBox="0 0 28 28" version="1.1" xmlns="http://www.w3.org/2000/svg" xmlns:xlink="http://www.w3.org/1999/xlink">
    <!-- Generator: sketchtool 52.1 (67048) - http://www.bohemiancoding.com/sketch -->
    <title>FA37A028-1FB3-4ABD-85F5-0DFF88813D16</title>
    <desc>Created with sketchtool.</desc>
    <defs>
        <path d="M1.66666667,15 C1.66666667,20.6478746 5.18082969,25.4731513 10.1400544,27.4161841 C10.0234409,26.3619352 9.91943427,24.7435291 10.1873301,23.5900012 C10.4284364,22.549935 11.7505811,16.9635189 11.7505811,16.9635189 C11.7505811,16.9635189 11.3518891,16.164559 11.3518891,14.9842414 C11.3518891,13.1294567 12.4250483,11.7458535 13.7645274,11.7458535 C14.900721,11.7458535 15.4506953,12.5999685 15.4506953,13.6242761 C15.4506953,14.7683489 14.722649,16.4781547 14.346019,18.0634677 C14.0324233,19.3919158 15.0126069,20.4729543 16.3205689,20.4729543 C18.6906591,20.4729543 20.5123508,17.9736438 20.5123508,14.3665051 C20.5123508,11.1738171 18.2194776,8.9424024 14.9432691,8.9424024 C11.1501793,8.9424024 8.9234921,11.7884017 8.9234921,14.7289524 C8.9234921,15.8746011 9.36315644,17.1037702 9.91470669,17.771934 C10.0234409,17.904306 10.0391995,18.0193437 10.0076823,18.1548674 C9.9068274,18.5756215 9.68147973,19.4817397 9.63735571,19.6661151 C9.57904897,19.9103731 9.44352519,19.9623764 9.18981208,19.8457629 C7.52570618,19.0704408 6.48564,16.6341646 6.48564,14.6801009 C6.48564,10.4741362 9.54122838,6.61013277 15.2946854,6.61013277 C19.9198282,6.61013277 23.51436,9.9068274 23.51436,14.3113501 C23.51436,18.9065516 20.6163574,22.60509 16.596344,22.60509 C15.244258,22.60509 13.9741165,21.9022574 13.5391798,21.0733562 C13.5391798,21.0733562 12.871016,23.6183666 12.7087027,24.2424063 C12.4077138,25.4006619 11.5945712,26.8520269 11.0524761,27.7376591 C12.2989796,28.1253201 13.6242761,28.3333333 15,28.3333333 C22.3639838,28.3333333 28.3333333,22.3639838 28.3333333,15 C28.3333333,7.63444037 22.3639838,1.66666667 15,1.66666667 C7.63601623,1.66666667 1.66666667,7.63444037 1.66666667,15 Z" id="path-1"></path>
    </defs>
    <g id="Templates" stroke="none" stroke-width="1" fill="none" fill-rule="evenodd">
        <g id="Poem-a-day" transform="translate(-1284.000000, -3267.000000)">
            <g id="modules/engagment" transform="translate(0.000000, 3139.000000)">
                <g id="Engagment">
                    <g id="Follow" transform="translate(934.000000, 54.000000)">
                        <g id="icons/social/facebook-2-copy-6" transform="translate(349.000000, 73.000000)">
                            <mask id="mask-2" fill="white">
                                <use xlink:href="#path-1"></use>
                            </mask>
                            <use id="Mask" fill="#212B36" xlink:href="#path-1"></use>
                            <g id="Color" mask="url(#mask-2)" fill="#007AB3">
                                <rect id="color/main" x="0" y="0" width="30" height="30" rx="4"></rect>
                            </g>
                        </g>
                    </g>
                </g>
            </g>
        </g>
    </g>
</svg>

<svg width="28" height="28" xmlns="http://www.w3.org/2000/svg" xmlns:xlink="http://www.w3.org/1999/xlink">
  <defs>
    <path d="M1.667 15c0 5.648 3.514 10.473 8.473 12.416-.117-1.054-.22-2.672.047-3.826.241-1.04 1.564-6.626 1.564-6.626s-.4-.8-.4-1.98c0-1.855 1.074-3.238 2.414-3.238 1.136 0 1.686.854 1.686 1.878 0 1.144-.728 2.854-1.105 4.44-.314 1.328.667 2.409 1.975 2.409 2.37 0 4.191-2.5 4.191-6.106 0-3.193-2.293-5.425-5.569-5.425-3.793 0-6.02 2.846-6.02 5.787 0 1.146.44 2.375.992 3.043a.402.402 0 0 1 .093.383c-.101.42-.327 1.327-.37 1.511-.059.244-.194.296-.448.18-1.664-.776-2.704-3.212-2.704-5.166 0-4.206 3.055-8.07 8.809-8.07 4.625 0 8.22 3.297 8.22 7.701 0 4.596-2.899 8.294-6.919 8.294-1.352 0-2.622-.703-3.057-1.532 0 0-.668 2.545-.83 3.17-.301 1.158-1.114 2.609-1.657 3.495 1.247.387 2.572.595 3.948.595 7.364 0 13.333-5.969 13.333-13.333 0-7.366-5.969-13.333-13.333-13.333S1.667 7.634 1.667 15z" id="a"/>
  </defs>
  <g transform="translate(-1 -1)" fill="none" fill-rule="evenodd">
    <mask id="b" fill="#fff">
      <use xlink:href="#a"/>
    </mask>
    <use fill="#212B36" xlink:href="#a"/>
    <g mask="url(#b)" fill="#007AB3">
      <rect width="30" height="30" rx="4"/>
    </g>
  </g>
</svg>
